X:1
T:Title
%%score 1 { 2 | 3 }
L:1/8
Q:1/4=103
M:4/4
K:Ab
V:1 treble nm="Grand Piano, Soprano"
V:2 bass nm="Choir Pad, Blackwater Falls, 99.99 D"
V:3 bass 
V:1
 [CE] [CE]2 [CE]- [CE][DF] [CE]2 | [CE] [EA]2 [EB]- [EB] [Ec]3 | [=EB] [FA]2 [DF]- [DF][FA] [FA]2 | %3
w: By~Ivy~Ernest~Rippetoe,~1918 * * * * *|||
 [FB] [FA]2 [DF]- [DF] [CE]3 | [CE] [CE]2 [CE]- [CE][DF] [CE]2 | [CE] [EA]2 [EB]- [EB] [Ec]3 | %6
w: |||
 [Ec] [Ae]2 [Ec]- [Ec][Ae] [Ae]2 | [Ac] [Ac]2 [EB]- [EB] [EA]3 | [Ec] [Ae]2 [Ec]- [Ec][Ae] [Ae]2 | %9
w: |||
 [Ac] [Ac]2 [GB]- [GB] [FA]3 | [EB] [FA]2 [DF]- [DF][FA] [FA]2 | [EA] [FB]2 [Ac]- [Ac] [GB]3 | %12
w: |||
 [CE] [CE]2 [CE]- [CE][DF] [CE]2 | [CE] [EA]2 [EB]- [EB] [Ec]3 | [Ec] [Ae]2 [Ec]- [Ec][Ae] [Ae]2 | %15
w: |||
 [Ac] [Ac]2 [EB]- [EB] [EA]3- | [EA]6 z2 |] %17
w: ||
V:2
 A, A,2 A,- A,A, A,2 | A, A,2 G,- G, A,3 | A, D2 A,- A,[K:treble]D D2 | D D2 A,- A,[K:bass] A,3 | %4
 A, A,2 A,- A,A, A,2 | A, A,2 G,- G, A,3 | A, C2 A,- A,/ z/[K:treble] C C2 | E E2 D- D C3 | %8
 A, C2 A,- A,/ z/ C[K:treble] C2 | E E2 D- D C3 | A, D2 A,- A,D[K:treble] D2 | E =D2 D- D E3 | %12
 A, A,2 A,- A,A, A,2 | A, A,2 G,- G, A,3 | A, C2 A,- A,/ z/[K:treble] C C2 | E E2 D- D C3- | %16
 C6 z2 |] %17
V:3
 A,, A,,2 A,,- A,,A,, A,,2 | A,, C,2 E,- E, z z2 | C, D,2 D,- D,D, D,2 | D, D,2 D,- D, A,,3 | %4
 A,, A,,2 A,,- A,,A,, A,,2 | A,, C,2 E,- E, z z2 | z .A,3 z A, A,2 | A, E,2 E,- E, A,,3 | %8
 z .A,3 z A, A,2 | A, A,2 E,- E, F,3 | C, D,2 D,- D,D, D,2 | C, B,,2 B,,- B,, E,3 | %12
 A,, A,,2 A,,- A,,A,, A,,2 | A,, C,2 E,- E, z z2 | z .A,3 z A, A,2 | A, E,2 E,- E, A,,3- | %16
 A,,6 z2 |] %17

